img/icon_2.svg

<svg fill="none" height="81" viewBox="0 0 81 81" width="81" xmlns="http://www.w3.org/2000/svg" xmlns:xlink="http://www.w3.org/1999/xlink"><radialGradient id="a" cx="38.202" cy="28.8008" gradientUnits="userSpaceOnUse" r="23.5691"><stop offset="0" stop-color="#fff"/><stop offset=".21" stop-color="#fcfdff"/><stop offset=".41" stop-color="#f9fcff"/><stop offset=".71" stop-color="#c6f3ff"/><stop offset="1" stop-color="#94eaff"/></radialGradient><radialGradient id="b" cx="46.7704" cy="44.1984" gradientUnits="userSpaceOnUse" r="15.3988"><stop offset="0" stop-color="#fff"/><stop offset=".29" stop-color="#fcfdff"/><stop offset=".58" stop-color="#f9fcff"/><stop offset=".79" stop-color="#c3d7fe"/><stop offset="1" stop-color="#8cb3fd"/></radialGradient><mask id="c" height="49" maskUnits="userSpaceOnUse" width="49" x="16" y="16"><path d="m65 16h-49v49h49z" fill="#fff"/></mask><rect fill="#222425" height="81" rx="24" width="81"/><g mask="url(#c)"><path d="m20.3453 34.195c1.0078-8.2094 9.8201-13.8836 19.6823-12.673s17.039 8.8487 16.0312 17.0581c-1.0077 8.2104-9.8201 13.8846-19.6823 12.674-1.4288-.1751-2.8012-.4862-4.1008-.913-1.9202 1.8346-7.6146 3.2223-10.4058 3.1276 0 0 3.4612-3.3028 4.2195-6.4533-4.0425-3.2463-6.3451-7.9319-5.7441-12.8204z" fill="url(#a)"/><path d="m20.3453 34.195c1.0078-8.2094 9.8201-13.8836 19.6823-12.673s17.039 8.8487 16.0312 17.0581c-1.0077 8.2104-9.8201 13.8846-19.6823 12.674-1.4288-.1751-2.8012-.4862-4.1008-.913-1.9202 1.8346-7.6146 3.2223-10.4058 3.1276 0 0 3.4612-3.3028 4.2195-6.4533-4.0425-3.2463-6.3451-7.9319-5.7441-12.8204z" stroke="#00b4ff" stroke-linejoin="round" stroke-width="1.91406"/><path d="m47.8456 39.2557c1.5858 0 2.8711-1.2853 2.8711-2.8711s-1.2853-2.8711-2.8711-2.8711-2.8711 1.2853-2.8711 2.8711 1.2853 2.8711 2.8711 2.8711zm-9.0679 0c1.5858 0 2.8711-1.2853 2.8711-2.8711s-1.2853-2.8711-2.8711-2.8711-2.8711 1.2853-2.8711 2.8711 1.2853 2.8711 2.8711 2.8711zm-9.0679 0c1.5858 0 2.8711-1.2853 2.8711-2.8711s-1.2853-2.8711-2.8711-2.8711-2.8711 1.2853-2.8711 2.8711 1.2853 2.8711 2.8711 2.8711z" fill="#152849"/><path d="m58.0665 47.457c-.6374-5.1938-6.2121-8.7837-12.451-8.0171-6.2389.7656-10.779 5.5967-10.1416 10.7905.6383 5.1939 6.2121 8.7827 12.4509 8.0171 1.159-.1426 2.2586-.4249 3.2779-.8231 1.8344 1.5942 5.6905 2.7869 5.9498 2.8903-.8843-1.9036-1.5676-3.6798-2.0499-5.3307 2.137-2.0117 3.3094-4.7162 2.9639-7.527z" fill="url(#b)"/><path d="m58.0665 47.457c-.6374-5.1938-6.2121-8.7837-12.451-8.0171-6.2389.7656-10.779 5.5967-10.1416 10.7905.6383 5.1939 6.2121 8.7827 12.4509 8.0171 1.159-.1426 2.2586-.4249 3.2779-.823 1.8344 1.5941 5.6905 2.7868 5.9498 2.8902-.8843-1.9036-1.5676-3.6798-2.0499-5.3307 2.137-2.0117 3.3094-4.7162 2.9639-7.527z" stroke="#007ee3" stroke-linejoin="round" stroke-width="1.91406"/><path d="m52.5295 50.635c.9991 0 1.8088-.8097 1.8088-1.8088 0-.999-.8097-1.8087-1.8088-1.8087-.999 0-1.8088.8097-1.8088 1.8087 0 .9991.8098 1.8088 1.8088 1.8088zm-5.7127 0c.999 0 1.8088-.8097 1.8088-1.8088 0-.999-.8098-1.8087-1.8088-1.8087-.9991 0-1.8088.8097-1.8088 1.8087 0 .9991.8097 1.8088 1.8088 1.8088zm-5.7128 0c.9991 0 1.8088-.8097 1.8088-1.8088 0-.999-.8097-1.8087-1.8088-1.8087-.999 0-1.8088.8097-1.8088 1.8087 0 .9991.8098 1.8088 1.8088 1.8088z" fill="#152849"/></g></svg>

<svg width="81" height="81" viewBox="0 0 81 81" fill="none" xmlns="http://www.w3.org/2000/svg">
<rect width="81" height="81" rx="24" fill="#222425"/>
<mask id="mask0_1_1313" style="mask-type:luminance" maskUnits="userSpaceOnUse" x="16" y="16" width="49" height="49">
<path d="M65 16H16V65H65V16Z" fill="white"/>
</mask>
<g mask="url(#mask0_1_1313)">
<path d="M20.3453 34.195C21.3531 25.9856 30.1654 20.3114 40.0276 21.522C49.8898 22.7326 57.0666 30.3707 56.0588 38.5801C55.0511 46.7905 46.2387 52.4647 36.3765 51.2541C34.9477 51.079 33.5753 50.7679 32.2757 50.3411C30.3555 52.1757 24.6611 53.5634 21.8699 53.4687C21.8699 53.4687 25.3311 50.1659 26.0894 47.0154C22.0469 43.7691 19.7443 39.0835 20.3453 34.195Z" fill="url(#paint0_radial_1_1313)"/>
<path d="M20.3453 34.195C21.3531 25.9856 30.1654 20.3114 40.0276 21.522C49.8898 22.7326 57.0666 30.3707 56.0588 38.5801C55.0511 46.7905 46.2387 52.4647 36.3765 51.2541C34.9477 51.079 33.5753 50.7679 32.2757 50.3411C30.3555 52.1757 24.6611 53.5634 21.8699 53.4687C21.8699 53.4687 25.3311 50.1659 26.0894 47.0154C22.0469 43.7691 19.7443 39.0835 20.3453 34.195Z" stroke="#00B4FF" stroke-width="1.91406" stroke-linejoin="round"/>
<path d="M47.8456 39.2557C49.4314 39.2557 50.7167 37.9704 50.7167 36.3846C50.7167 34.7988 49.4314 33.5135 47.8456 33.5135C46.2598 33.5135 44.9745 34.7988 44.9745 36.3846C44.9745 37.9704 46.2598 39.2557 47.8456 39.2557ZM38.7777 39.2557C40.3635 39.2557 41.6488 37.9704 41.6488 36.3846C41.6488 34.7988 40.3635 33.5135 38.7777 33.5135C37.1919 33.5135 35.9066 34.7988 35.9066 36.3846C35.9066 37.9704 37.1919 39.2557 38.7777 39.2557ZM29.7098 39.2557C31.2956 39.2557 32.5809 37.9704 32.5809 36.3846C32.5809 34.7988 31.2956 33.5135 29.7098 33.5135C28.124 33.5135 26.8387 34.7988 26.8387 36.3846C26.8387 37.9704 28.124 39.2557 29.7098 39.2557Z" fill="#152849"/>
<path d="M58.0665 47.457C57.4291 42.2632 51.8544 38.6733 45.6155 39.4399C39.3766 40.2055 34.8365 45.0366 35.4739 50.2304C36.1122 55.4243 41.686 59.0131 47.9248 58.2475C49.0838 58.1049 50.1834 57.8226 51.2027 57.4244C53.0371 59.0186 56.8932 60.2113 57.1525 60.3147C56.2682 58.4111 55.5849 56.6349 55.1026 54.984C57.2396 52.9723 58.412 50.2678 58.0665 47.457Z" fill="url(#paint1_radial_1_1313)"/>
<path d="M58.0665 47.457C57.4291 42.2632 51.8544 38.6733 45.6155 39.4399C39.3766 40.2055 34.8365 45.0366 35.4739 50.2304C36.1122 55.4243 41.686 59.0131 47.9248 58.2475C49.0838 58.1049 50.1834 57.8226 51.2027 57.4245C53.0371 59.0186 56.8932 60.2113 57.1525 60.3147C56.2682 58.4111 55.5849 56.6349 55.1026 54.984C57.2396 52.9723 58.412 50.2678 58.0665 47.457Z" stroke="#007EE3" stroke-width="1.91406" stroke-linejoin="round"/>
<path d="M52.5295 50.635C53.5286 50.635 54.3383 49.8253 54.3383 48.8262C54.3383 47.8272 53.5286 47.0175 52.5295 47.0175C51.5305 47.0175 50.7207 47.8272 50.7207 48.8262C50.7207 49.8253 51.5305 50.635 52.5295 50.635ZM46.8168 50.635C47.8158 50.635 48.6256 49.8253 48.6256 48.8262C48.6256 47.8272 47.8158 47.0175 46.8168 47.0175C45.8177 47.0175 45.008 47.8272 45.008 48.8262C45.008 49.8253 45.8177 50.635 46.8168 50.635ZM41.104 50.635C42.1031 50.635 42.9128 49.8253 42.9128 48.8262C42.9128 47.8272 42.1031 47.0175 41.104 47.0175C40.105 47.0175 39.2952 47.8272 39.2952 48.8262C39.2952 49.8253 40.105 50.635 41.104 50.635Z" fill="#152849"/>
</g>
<defs>
<radialGradient id="paint0_radial_1_1313" cx="0" cy="0" r="1" gradientUnits="userSpaceOnUse" gradientTransform="translate(38.202 28.8008) scale(23.5691 23.5691)">
<stop stop-color="white"/>
<stop offset="0.21" stop-color="#FCFDFF"/>
<stop offset="0.41" stop-color="#F9FCFF"/>
<stop offset="0.71" stop-color="#C6F3FF"/>
<stop offset="1" stop-color="#94EAFF"/>
</radialGradient>
<radialGradient id="paint1_radial_1_1313" cx="0" cy="0" r="1" gradientUnits="userSpaceOnUse" gradientTransform="translate(46.7704 44.1984) scale(15.3988)">
<stop stop-color="white"/>
<stop offset="0.29" stop-color="#FCFDFF"/>
<stop offset="0.58" stop-color="#F9FCFF"/>
<stop offset="0.79" stop-color="#C3D7FE"/>
<stop offset="1" stop-color="#8CB3FD"/>
</radialGradient>
</defs>
</svg>
